X: 156
T: Dudelas es Ugros
B: incoming
M:4/4
L:1/8
Q: 1/4=150
K:F
V:1 
  FGE4C2  |F2C2B,2z2|z8   |\
  CCC4B,2 |C4z4     |z8   |
V:2 
  C8      |C6z2     |z8   | C8      |C4z4    |z8|
%%MIDI gchord z2f2
%%MIDI program 41
|:ffgf    |e2c2     |Bccz | [1Bccz  :| [2c2z2|
|:ecBc    |A2F2     |_EFFz| [1_EFFz :| [2F2z2|
% abcbook-tune_id 63cb082f7d3efeb72a87d4f2
% abcbook-tune_composer_id 
% abcbook-boost 0
% abcbook-difficulty 0
% abcbook-tags balkan dances
% abcbook-tablature 
% abcbook-transpose 
% abcbook-tuning 
% abcbook-lastupdated 1674250287865
% abcbook-soundfonts 
% abcbook-repeats 1


